T: I'd Rather Be Married Than Left
M: 12/8
L: 1/8
K: Dmaj
|:F|ABA AFA d2D D2F|ABA AFA B2E E2F||:g|fed fed e2A A2g|fed fef g2e e2g|
